src/pos-icons/format-list-numbered-rtl.svg

<svg height="24" viewBox="0 0 24 24" width="24" xmlns="http://www.w3.org/2000/svg"><path d="m3 13v-2h14v2zm0 6v-2h14v2zm0-12v-2h14v2zm17 1v-3h-1v-1h2v4zm-1 9v-1h3v4h-3v-1h2v-.5h-1v-1h1v-.5zm2.25-7c.42 0 .75.34.75.75 0 .2-.08.39-.21.52l-1.67 1.73h1.88v1h-3v-.92l2-2.08h-2v-1z"/></svg>

<?xml version="1.0" encoding="UTF-8"?><!DOCTYPE svg PUBLIC "-//W3C//DTD SVG 1.1//EN" "http://www.w3.org/Graphics/SVG/1.1/DTD/svg11.dtd"><svg xmlns="http://www.w3.org/2000/svg" xmlns:xlink="http://www.w3.org/1999/xlink" version="1.1" id="mdi-format-list-numbered-rtl" width="24" height="24" viewBox="0 0 24 24"><path d="M3,13V11H17V13H3M3,19V17H17V19H3M3,7V5H17V7H3M20,8V5H19V4H21V8H20M19,17V16H22V20H19V19H21V18.5H20V17.5H21V17H19M21.25,10C21.67,10 22,10.34 22,10.75C22,10.95 21.92,11.14 21.79,11.27L20.12,13H22V14H19V13.08L21,11H19V10H21.25Z" /></svg>
